X: 1
T: Draw Me a Bucket   [D]
C:
R: reel
Z: 2014 John Chambers <jc:trillian.mit.edu>
M: C|
L: 1/8
K: D
[|\
"D"D2 DD "A7"EE F2 | "D"D4 "A7"A,4 | "D"D2 D2 "A7"E2 F2 | "D"D4 A,2 D2 |
"D"F F2 ^E F2 A,2 | "D"F F2 ^E F2 F=E | "D"D2 F3 E DA, | "G"B,2 D2 "D"D4 |]
